src/icons/svg/bar-chart.svg

<?xml version="1.0"?><svg xmlns="http://www.w3.org/2000/svg" width="40" height="40" viewBox="0 0 40 40"><path  d="m12.4 20v9.9h-4.9v-9.9h4.9z m7.5-9.9v19.8h-5v-19.8h5z m19.9 22.3v2.5h-39.8v-29.8h2.5v27.3h37.3z m-12.5-17.4v14.9h-4.9v-14.9h4.9z m7.5-7.4v22.3h-5v-22.3h5z"></path></svg>

<svg xmlns="http://www.w3.org/2000/svg" width="40" height="40" viewBox="0 0 40 40"><path d="M12.4 20v9.9H7.5V20h4.9zm7.5-9.9v19.8h-5V10.1h5zm19.9 22.3v2.5H0V5.1h2.5v27.3h37.3zM27.3 15v14.9h-4.9V15h4.9zm7.5-7.4v22.3h-5V7.6h5z"/></svg>
